X: 1379
T: The Mills are Grinding
M:C|
L:1/8
N:"2nd Setting" "collected by Ennis"
B:O'Neill's 1379
Z:"Transcribed by Bob Safranek, rjs@gsp.org"
K:D
(3DDD (DE) {G}FEFG | ABGB (Ad) d z| (3DDD (DE) {G}FEFG| ABGF EFGE |
(3DDD (DE) {G}FEFG | ABGB  Addg   | fdec d2 (AB)   | {d}cBcG (ED) D "   Fine"z||
   dcdB c2 ((3ABc) | d2 (fd) cAAc | dcdB cBcA         | GEcE (ED) D z |
   dcdB c2 ((3ABc) | d2 (fd) cAAg | fdec d2 (AB)   | {d}cBcG EFG"   D.C."E |]


